X:31
T: Das Schloss im Oberland (Falkenstein)
N: A0028
O: Europa, Mitteleuropa, Deutschland
N: Die Melodie bei Joh. Ott 1544 No. 8. Sie ist nur eine
N: Variante von: Es ligt ein schloss in Oesterreich.
R: Romanze, Ballade, Lied
M: 4/2
L: 1/8
K: F
F4 | F4G4A4B4 | c4c4F4
G4 | A4d4c4F4 | F6EDE4F4 | D4C4z4
c4 | c4c4c4B4 | B4A4G4
d4 | c4G4A4F4 | E4F4G4A4G2F2G8 | F8z4

